assets/svg/arrow-right-black.svg

<svg height="11" viewBox="0 0 16 11" width="16" xmlns="http://www.w3.org/2000/svg"><path d="m144.676207 10.1577216h-12.676207v-1.29636248h12.695288l-3.944693-3.94469245.916667-.91666667 5.5 5.5-.916667.9166667-4.583333 4.5833333-.916667-.9166667z" fill="#111" fill-rule="evenodd" transform="translate(-132 -4)"/></svg>

<?xml version="1.0" encoding="UTF-8"?>
<svg width="16px" height="11px" viewBox="0 0 16 11" version="1.1" xmlns="http://www.w3.org/2000/svg" xmlns:xlink="http://www.w3.org/1999/xlink">
    <!-- Generator: Sketch 48.1 (47250) - http://www.bohemiancoding.com/sketch -->
    <title>Combined Shape</title>
    <desc>Created with Sketch.</desc>
    <defs></defs>
    <g id="Modal-Minibasket-Search-Small" stroke="none" stroke-width="1" fill="none" fill-rule="evenodd" transform="translate(-268.000000, -480.000000)">
        <g id="Group-2" transform="translate(136.000000, 476.000000)" fill="#111111">
            <path d="M144.676207,10.1577216 L132,10.1577216 L132,8.86135912 L144.695288,8.86135912 L140.750595,4.91666667 L141.667262,4 L147.167262,9.5 L146.250595,10.4166667 L141.667262,15 L140.750595,14.0833333 L144.676207,10.1577216 Z" id="Combined-Shape"></path>
        </g>
    </g>
</svg>
